img/icon-2.svg

<svg width="64" height="77" viewBox="0 0 64 77" fill="none" xmlns="http://www.w3.org/2000/svg">
<path fill-rule="evenodd" clip-rule="evenodd" d="M61.097 23.501H36.312C50.125 16.602 51.229 12.25 50.72 9.816C49.558 5.853 45.028 2.793 40.718 4.409C35.149 6.498 33.581 14.797 32.074 20.796C30.15 14.726 28.29 6.982 23.938 3.059C22.677 1.921 20.843 0.794999 18.175 1.031C14.149 1.387 8.373 6.413 10.717 12.012C12.968 17.39 20.404 20.789 25.295 23.501H2.879C1.29355 23.5026 0.00715075 24.7846 0 26.37V37.692C0.00715075 39.2774 1.29355 40.5594 2.879 40.561H3.153V77H60.994V40.561H61.097C62.6828 40.5599 63.9698 39.2778 63.977 37.692V26.37C63.9698 24.7842 62.6828 23.5021 61.097 23.501ZM42.413 6.944C44.516 6.634 47.395 8.243 47.668 10.153C48.061 12.909 44.268 15.408 42.582 16.574C40.059 18.318 37.654 19.217 35.295 20.629C36.179 16.939 37.844 7.618 42.413 6.944ZM19.531 16.912C17.306 15.427 12.987 12.481 13.091 9.141C13.203 5.546 18.834 2.571 21.905 5.255C25.761 8.626 27.618 16.36 29.024 21.812C25.775 20.273 22.696 19.024 19.531 16.912ZM25.503 74.026H6.136V40.561H25.504V74.026H25.503ZM25.503 37.524H3.046V26.538H25.503V37.524ZM35.66 37.524V74.027H28.486V26.538H35.66V37.524ZM58.011 74.026H38.644V40.561H58.011V74.026ZM60.931 37.524H38.644V26.538H60.931V37.524Z" fill="#81B3D2"/>
</svg>

<svg width="64" height="77" fill="none" xmlns="http://www.w3.org/2000/svg"><path fill-rule="evenodd" clip-rule="evenodd" d="M61.1 23.5H36.3c13.8-6.9 15-11.3 14.4-13.7-1.1-4-5.7-7-10-5.4-5.6 2.1-7.1 10.4-8.6 16.4-2-6-3.8-13.8-8.2-17.7a7.3 7.3 0 00-5.7-2c-4 .3-9.8 5.3-7.5 11 2.3 5.3 9.7 8.7 14.6 11.4H2.9A2.9 2.9 0 000 26.4v11.3c0 1.6 1.3 2.9 2.9 2.9h.3V77H61V40.6h.1c1.6 0 2.9-1.3 2.9-3V26.5c0-1.6-1.3-2.9-2.9-2.9zM42.4 6.9c2.1-.3 5 1.3 5.3 3.3.4 2.7-3.4 5.2-5.1 6.4-2.5 1.7-5 2.6-7.3 4 .9-3.7 2.5-13 7.1-13.7zM19.5 17c-2.2-1.5-6.5-4.4-6.4-7.8.1-3.6 5.7-6.5 8.8-3.8 3.9 3.3 5.7 11 7.1 16.5-3.2-1.5-6.3-2.8-9.5-4.9zm6 57.1H6.1V40.6h19.4V74zm0-36.5H3v-11h22.5v11zm10.2 0V74h-7.2V26.5h7.2v11zM58 74H38.6V40.6H58V74zm3-36.5H38.5v-11H61v11z" fill="#81B3D2"/></svg>
